!!!!SEGMENT: pl-kk--kk-i-3--007-004_anonim--officium-secundum-tollite-portas.krn
!!!cenid: 15xx:592
!!!COM: Anonim
!!!COM-rismID: pe30004985
!!!CDT:
!!!CNT:
!!!OPR: Officium Secundum
!!!OTL: Tollite portas
!!!OMV: 004
!!!PDT:
!!!AGN:
!!!SMS-siglum: PL-Kk
!!!SMS-shelfmark: Kk.I.3
!!!SMS-shelfwork: 007-004 M
!!!SMS-variant:
!!!SMS-altvar:
!!!NIFC-rismSourceID: 1001145510
!!!NIFC-islandoraID: pl-kk:1170
!!!URL-pdf-islandora: https://repozytorium.nifc.pl/islandora/object/pl-kk%3A1170/datastream/PDF/view
!!!URL-scan: https://polish.musicsources.pl/pl/lokalizacje/galeria/rekopisy/5919 @EN{Scan on Polish Music Sources Website} @PL{Skany w portalu Dziedzictwo Muzyki Polskiej w otwartym dostępie}
!!!ONB-nifc: UWAGA: Discantus (s. 32v-33r, skan 0035), Tenor (s. 24r-25r, skan 0196-0197), Bassus (s. 29r-31r, skan 0332-0334). Następna część: Alleluia
!!!AIN: 1 bass 1 soprn 1 tenor
!!!key: a:hypodor
**kern	**text	**kern	**text	**kern	**text
*part3	*part3	*part2	*part2	*part1	*part1
*staff3	*staff3	*staff2	*staff2	*staff1	*staff1
*I"Bassus	*	*I"Tenor	*	*I"Discantus	*
*I'B	*	*I'T	*	*I'S	*
*ICvox	*	*ICvox	*	*ICvox	*
*Ibass	*	*Itenor	*	*Isoprn	*
*clefF3	*	*clefC4	*	*clefC3	*
*k[]	*	*k[]	*	*k[]	*
*C:	*	*C:	*	*C:	*
*M2/1	*	*M2/1	*	*M2/1	*
*met(C|)	*	*met(C|)	*	*met(C|)	*
*2\right	*	*2\right	*	*2\right	*
=1-	=1-	=1-	=1-	=1-	=1-
*lig	*	*	*	*	*
!LO:TX:t=P:problem=oznaczenie metrum jest edytorskie	!	!LO:TX:t=P:problem=oznaczenie metrum jest edytorskie	!	!LO:TX:t=P:problem=oznaczenie metrum jest edytorskie	!
!LO:TX:t=d T A:note=litery zapisane na odpowiedniej pozycji w pięciolinii wskazują na wysokość dźwięku w poszczególnych głosach	!	!	!	!LO:TX:b:t=t.:note: litera wskazuje na wysokość, na której zaczyna tenor	!
1G	Tol-	1G	Ol-	0g	Tol-
*	*	*lig	*	*	*
1C	.	1c	.	.	.
*Xlig	*	*	*	*	*
=2-	=2-	=2-	=2-	=2-	=2-
1D	-li-	1A	.	1f	.
*	*	*Xlig	*	*	*
1D	-te	1A	-li-	1f	-li-
=3-	=3-	=3-	=3-	=3-	=3-
1D	.	1A,	-te	1f	-te
*lig	*	*lig	*	*	*
1C	por-	1c	por-	1e	por-
=4-	=4-	=4-	=4-	=4-	=4-
1F	.	1A	.	1f	.
*Xlig	*	*Xlig	*	*	*
*lig	*	*	*	*	*
1G	.	1B	.	1d	.
=5-	=5-	=5-	=5-	=5-	=5-
1C	.	1c	.	1e	.
*Xlig	*	*	*	*	*
1D	.	1A	.	1f	.
=6-	=6-	=6-	=6-	=6-	=6-
1E	.	1G	.	1g	.
*	*	*lig	*	*	*
1C	.	1c	.	1e	.
=7-	=7-	=7-	=7-	=7-	=7-
2G/	.	1G	.	2d/	.
2E/	.	.	.	1g	.
*	*	*Xlig	*	*	*
1D	.	1A	.	.	.
.	.	.	.	1f\	.
=8-	=8-	=8-	=8-	=8-	=8-
1C	.	1c	.	.	.
!	!	!	!	!LO:TX:t=P:problem=2\right&colon; global	!
.	.	.	.	2e\	.
*custos:C	*	*	*	*custos:g	*
1D	-tas	1A	-tas	1f	-tas
!LO:PB:g=original	!	!	!	!LO:LB:g=original	!
=9-	=9-	=9-	=9-	=9-	=9-
*	*	*lig	*	*	*
1C	prin-	1c	prin-	1g	prin-
1F	.	1A	.	1f	.
*	*	*Xlig	*	*	*
=10-	=10-	=10-	=10-	=10-	=10-
*	*	*custos:d	*	*	*
1A	.	1c	.	2e/	.
.	.	.	.	1c	.
*	*	*clefC3	*	*	*
!	!	!LO:LB:g=original	!	!	!
1G	.	1d	.	.	.
.	.	.	.	2B/	-ci-
=11-	=11-	=11-	=11-	=11-	=11-
2C/	.	1e	.	1c	.
1c	-ci-	.	.	.	.
*	*	*lig	*	*	*
.	.	1c	-ci-	2A/	.
2A\	.	.	.	2F/	.
=12-	=12-	=12-	=12-	=12-	=12-
2G/	.	1B	.	2G/	.
2E/	.	.	.	2g\	.
2F/	.	1A	.	2f\	.
1G\	-pes	.	.	1e\	.
*	*	*Xlig	*	*	*
=13-	=13-	=13-	=13-	=13-	=13-
*	*	*lig	*	*	*
.	.	1A	-pes	.	.
2F/	.	.	.	2f\	.
1G	.	1G	.	1d	.
*	*	*Xlig	*	*	*
=14-	=14-	=14-	=14-	=14-	=14-
*	*	*lig	*	*	*
1C	.	1c	.	2e/	.
.	.	.	.	1g	.
1D	.	1A	.	.	.
.	.	.	.	2f\	.
=15-	=15-	=15-	=15-	=15-	=15-
1E	.	1G	.	1g	-pes
*	*	*Xlig	*	*	*
*	*	*lig	*	*	*
2C/	.	1G	ve-	1G	ve-
*custos:A	*	*	*	*	*
2BB/	ve-	.	.	.	.
*clefF4	*	*	*	*	*
!LO:LB:g=original	!	!	!	!	!
=16-	=16-	=16-	=16-	=16-	=16-
1AA	.	1F	.	1A	.
*	*	*Xlig	*	*	*
*	*	*	*	*custos:c	*
2GG/	.	1G	.	1B	.
1G\	.	.	.	.	.
!	!	!	!	!LO:LB:g=original	!
=17-	=17-	=17-	=17-	=17-	=17-
*	*	*lig	*	*	*
.	.	1A	.	2c/	.
2F\	.	.	.	1d	.
1E	.	1G	.	.	.
.	.	.	.	2c/	.
*	*	*Xlig	*	*	*
=18-	=18-	=18-	=18-	=18-	=18-
1D	.	1A	.	1d	.
*	*	*lig	*	*	*
1F	-ſtras	1A	-ſtras	1c	-ſtras
=19-	=19-	=19-	=19-	=19-	=19-
1D	.	1F	.	2d/	.
.	.	.	.	1f	.
*	*	*Xlig	*	*	*
1C	.	1G	.	.	.
.	.	.	.	2e\	.
=20-	=20-	=20-	=20-	=20-	=20-
1F	.	1A	.	1f	.
1G	.	1B	.	1d	.
=21-	=21-	=21-	=21-	=21-	=21-
1C	.	1c	.	1g	.
*	*	*lig	*	*	*
1D	.	1A	.	1f	.
=22-	=22-	=22-	=22-	=22-	=22-
1E	.	1G	.	1g	.
*	*	*Xlig	*	*	*
1D	.	1A	.	1f	.
=23-	=23-	=23-	=23-	=23-	=23-
*	*	*custos:d	*	*	*
1A	.	1c	.	2e\	.
.	.	.	.	1c	.
*custos:E	*	*	*	*	*
*	*	*lig	*	*	*
!	!	!LO:LB:g=original	!	!	!
1G	.	1d	.	.	.
.	.	.	.	2B/	.
!LO:LB:g=original	!	!	!	!	!
=24-	=24-	=24-	=24-	=24-	=24-
2E/	.	1c	.	1c	.
1F	.	.	.	.	.
*	*	*Xlig	*	*	*
*	*	*lig	*	*	*
*	*	*	*	*custos:G	*
.	.	1c	.	2A/	.
!	!	!	!	!LO:LB:g=original	!
2C/	.	.	.	1G/	.
=25-	=25-	=25-	=25-	=25-	=25-
1D	.	1A	.	.	.
.	.	.	.	2F/	.
*	*	*Xlig	*	*	*
*	*	*lig	*	*	*
2C/	.	1c	.	2G/	.
2E/	.	.	.	1g\	.
=26-	=26-	=26-	=26-	=26-	=26-
1D	.	1A	.	.	.
.	.	.	.	2f\	.
*	*	*Xlig	*	*	*
1C	.	1c	et	1g	.
=27-	=27-	=27-	=27-	=27-	=27-
1C	et	1c	e-	1g	et
1F	e-	1c	-le-	1a	e-
=28-	=28-	=28-	=28-	=28-	=28-
1D	.	1d	.	1f	-le-
*	*	*lig	*	*	*
1D	-le-	1d	-va-	1f	.
=29-	=29-	=29-	=29-	=29-	=29-
1G	.	1B	.	1d	.
*	*	*Xlig	*	*	*
*	*	*lig	*	*	*
1C	.	1c	.	1g	-va-
=30-	=30-	=30-	=30-	=30-	=30-
1D	-va-	1A	.	1f	.
*	*	*Xlig	*	*	*
1E	-mi-	1G	-mi-	1e	.
=31-	=31-	=31-	=31-	=31-	=31-
1D	.	1A	.	1f	-mi-
*custos:C	*	*	*	*	*
1F	-ni	1A	-ni	1f	-ni
*clefF3	*	*lig	*	*	*
!LO:LB:g=original	!	!	!	!	!
=32-	=32-	=32-	=32-	=32-	=32-
1C	por-	1c	.	1e	por-
1F	.	1A	.	2c/	.
*	*	*	*	*custos:e	*
.	.	.	.	2d/	.
!	!	!	!	!LO:LB:g=original	!
*	*	*Xlig	*	*	*
=33-	=33-	=33-	=33-	=33-	=33-
1E	.	1c	por-	1e	.
*	*	*lig	*	*	*
1D	.	1d	.	1f	.
=34-	=34-	=34-	=34-	=34-	=34-
1F	.	1A	.	1c	.
*	*	*Xlig	*	*	*
*	*	*lig	*	*	*
1D	.	1d	.	1f	.
=35-	=35-	=35-	=35-	=35-	=35-
*	*	*custos:c	*	*	*
1C	.	1e	.	1g	.
*	*	*Xlig	*	*	*
*	*	*lig	*	*	*
!	!	!LO:PB:g=original	!	!	!
2C/	.	1c	-te	1e	.
1c\	.	.	.	.	.
=36-	=36-	=36-	=36-	=36-	=36-
.	.	1A	.	1e	.
1A	.	.	.	.	.
*	*	*Xlig	*	*	*
*	*	*lig	*	*	*
.	.	1c	.	2e\	.
2F/	.	.	.	2f\	.
=37-	=37-	=37-	=37-	=37-	=37-
1G	.	1B	.	1d	.
*	*	*Xlig	*	*	*
*	*	*lig	*	*	*
1C	.	1c	.	1e	.
=38-	=38-	=38-	=38-	=38-	=38-
2F/	.	1A	.	1c	.
2E/	.	.	.	.	.
*	*	*Xlig	*	*	*
1D	-te	1A	e-	1d	-te
=39-	=39-	=39-	=39-	=39-	=39-
*	*	*lig	*	*	*
1C	e-	1c	-ter-	2e\	e-
.	.	.	.	1g	-ter-
1D	-ter-	1A	.	.	.
.	.	.	.	2f\	.
*	*	*Xlig	*	*	*
=40-	=40-	=40-	=40-	=40-	=40-
*custos:C	*	*	*	*	*
1C	.	1c	.	0g	.
!LO:LB:g=original	!	!	!	!	!
1C	.	1c	-na-	.	.
=41-	=41-	=41-	=41-	=41-	=41-
*	*	*lig	*	*	*
*	*	*	*	*custos:A	*
1C	-na-	1c	-les	1g	-na-
!	!	!	!	!LO:PB:g=original	!
1F	-les	1A	.	1a	.
=42-	=42-	=42-	=42-	=42-	=42-
1F	.	1A	.	2a\	.
.	.	.	.	2f/	.
*	*	*Xlig	*	*	*
1E	.	1c	.	1g	.
=43-	=43-	=43-	=43-	=43-	=43-
1D	.	1d	.	1f	.
1A	.	1c	.	1e	-les
=44-	=44-	=44-	=44-	=44-	=44-
1G	.	1d	.	0g	.
*	*	*lig	*	*	*
1C	.	1e	.	.	.
=45-	=45-	=45-	=45-	=45-	=45-
1F	.	1c	.	1a	.
*	*	*Xlig	*	*	*
2E/	.	1c	.	1g	.
2C/	.	.	.	.	.
=46-	=46-	=46-	=46-	=46-	=46-
*	*	*lig	*	*	*
1G	.	1d	.	1g	.
1C	.	1c	.	1e	.
*	*	*Xlig	*	*	*
=47-	=47-	=47-	=47-	=47-	=47-
1C	et	1c	et	1g	.
*	*	*custos:c	*	*	*
2C/	.	1c	in-	2g\	et
1F\	in-	.	.	1a\	in-
!	!	!LO:LB:g=original	!	!	!
=48-	=48-	=48-	=48-	=48-	=48-
.	.	1c	-tro-	.	.
2E/	.	.	.	2g\	-tro-
*custos:a	*	*	*	*	*
*	*	*lig	*	*	*
2F/	-tro-	1c	-i-	2f\	.
!LO:PB:g=original	!	!	!	!	!
1A\	i-	.	.	2e\	.
=49-	=49-	=49-	=49-	=49-	=49-
.	.	1B	.	1d	.
1G	.	.	.	.	.
*	*	*Xlig	*	*	*
.	.	1d	.	2g\	-i-
*	*	*	*	*custos:g	*
2F/	.	.	.	2a\	.
!	!	!	!	!LO:LB:g=original	!
=50-	=50-	=50-	=50-	=50-	=50-
2E/	.	1e	.	1g	.
2C/	.	.	.	.	.
*	*	*lig	*	*	*
1F	.	1c	.	1f	.
=51-	=51-	=51-	=51-	=51-	=51-
1G	.	1B	.	1d	.
*	*	*Xlig	*	*	*
*	*	*lig	*	*	*
1D	.	1d	.	1d	-bit
=52-	=52-	=52-	=52-	=52-	=52-
1A	-bit	1c	.	2e/	.
.	.	.	.	1c	.
*	*	*Xlig	*	*	*
1G	.	1d	.	.	.
.	.	.	.	2B/	.
=53-	=53-	=53-	=53-	=53-	=53-
2E/	.	1c	.	2c/	.
2C/	.	.	.	2e\	.
2D/	.	1B	.	2d\	.
2E/	.	.	.	2g\	.
=54-	=54-	=54-	=54-	=54-	=54-
1F	.	1A	.	1c	.
1D	.	1A	-bit	1d	.
=55-	=55-	=55-	=55-	=55-	=55-
*	*	*lig	*	*	*
1C	.	1c	.	1e	.
1D	.	1A	.	1f	.
=56-	=56-	=56-	=56-	=56-	=56-
*custos:D	*	*	*	*	*
1E	.	1G	.	1g	.
*	*	*Xlig	*	*	*
!LO:LB:g=original	!	!	!	!	!
1D	.	1A	.	1f	.
=57-	=57-	=57-	=57-	=57-	=57-
*	*	*lig	*	*	*
1C	.	1c	.	1e	.
*	*	*	*	*custos:e	*
1F	.	1A	.	1f	.
!	!	!	!	!LO:LB:g=original	!
*	*	*Xlig	*	*	*
=58-	=58-	=58-	=58-	=58-	=58-
*	*	*lig	*	*	*
1C	.	1c	.	1e	.
2C/	.	1c	.	2e\	.
*	*	*Xlig	*	*	*
1F\	.	.	.	2f\	.
=59-	=59-	=59-	=59-	=59-	=59-
.	.	1B	.	1g	.
2E/	.	.	.	.	.
1F	.	1A	.	1c	.
=60-	=60-	=60-	=60-	=60-	=60-
*	*	*lig	*	*	*
1C	.	1c	.	2c/	.
.	.	.	.	2d/	.
2C/	.	1G	.	2e\	.
2BB/	.	.	.	1f\	.
=61-	=61-	=61-	=61-	=61-	=61-
1C	.	1G	.	.	.
.	.	.	.	2e\	.
1D	.	1F	.	1f	.
*	*	*Xlig	*	*	*
=62-	=62-	=62-	=62-	=62-	=62-
*	*	*custos:G	*	*	*
1F	.	1F	rex	1d	rex
!	!	!LO:LB:g=original	!	!	!
1E	rex	1G	.	1e	.
=63-	=63-	=63-	=63-	=63-	=63-
1D	.	1A	.	1f	.
1C	.	1c	.	1g	.
=64-	=64-	=64-	=64-	=64-	=64-
0D	.	1B	.	1c	.
.	.	1A	.	1f	.
=65-	=65-	=65-	=65-	=65-	=65-
*	*	*lig	*	*	*
*custos:c	*	*	*	*custos:d	*
2C/	.	1c	.	1e	.
1c	.	.	.	.	.
!	!	!	!	!LO:LB:g=original	!
.	.	1G	.	1d	.
2B\	.	.	.	.	.
*	*	*Xlig	*	*	*
=66-	=66-	=66-	=66-	=66-	=66-
1c	.	1A	.	1c	.
*	*	*lig	*	*	*
1A	glo-	1c	glo-	1e	.
=67-	=67-	=67-	=67-	=67-	=67-
1F	-ri-	1A	.	1f	.
*	*	*Xlig	*	*	*
1A	-e	1c	-ri-	2e\	glo-
.	.	.	.	2f\	-ri-
=68-	=68-	=68-	=68-	=68-	=68-
0G	.	1d	.	1g	-e
*	*	*lig	*	*	*
.	.	1d	e	1g	.
=69-	=69-	=69-	=69-	=69-	=69-
2C/	.	1c	.	1e	.
1c	.	.	.	.	.
*	*	*Xlig	*	*	*
.	.	1d	.	1g	.
2B\	.	.	.	.	.
=70-	=70-	=70-	=70-	=70-	=70-
1c	.	1e	.	1c	.
*	*	*lig	*	*	*
2G/	.	1d	.	2g\	.
2F/	.	.	.	2a\	.
=71-	=71-	=71-	=71-	=71-	=71-
1G	.	1d	.	1g	.
*	*	*Xlig	*	*	*
*custos:A	*	*	*	*custos:g	*
!	!	!	!	!LO:TX:b:t=Quis\naſcen&colon;\ntacet	!
!	!	!LO:TX:t=P:problem=kreska pseudotaktowa	!	!LO:TX:t=P:problem=kreska pseudotaktowa	!
1C;	.	1c	.	1e;	.
!LO:LB:g=original	!	!	!	!	!
=72-	=72-	=72	=72-	=72	=72-
1A	Qvis	1A	Quis	0ryy	.
1c	aſ-	1A	a-	.	.
=73-	=73-	=73-	=73-	=73-	=73-
*	*	*lig	*	*	*
2c\	.	1c	.	0ryy	.
1A	.	.	.	.	.
.	.	1B	.	.	.
2G/	-ſcen-	.	.	.	.
*	*	*Xlig	*	*	*
=74-	=74-	=74-	=74-	=74-	=74-
1A	.	1c	-ſcen-	0ryy	.
1D	-det	1d	.	.	.
=75-	=75-	=75-	=75-	=75-	=75-
1D	.	1d,	-det	0ryy	.
1G	in	1d	in	.	.
=76-	=76-	=76-	=76-	=76-	=76-
*	*	*custos:d	*	*	*
1G	mo(n)-	1d	mo(n)-	0ryy	.
!	!	!LO:LB:g=original	!	!	!
1G	-te(m)	1d	-tem	.	.
=77-	=77-	=77-	=77-	=77-	=77-
*	*	*lig	*	*	*
2F/	do-	1d	do-	0ryy	.
2G/	.	.	.	.	.
2E/	.	1c	.	.	.
2C/	.	.	.	.	.
*	*	*Xlig	*	*	*
=78-	=78-	=78-	=78-	=78-	=78-
1G	.	1d	.	0ryy	.
1C	.	1e	.	.	.
=79-	=79-	=79-	=79-	=79-	=79-
*custos:g	*	*	*	*	*
*	*	*lig	*	*	*
1D	.	1f	.	0ryy	.
!LO:LB:g=original	!	!	!	!	!
1G	.	1d	.	.	.
=80-	=80-	=80-	=80-	=80-	=80-
1A	.	1c	.	0ryy	.
*	*	*Xlig	*	*	*
1A	.	1c	-mi-	.	.
=81-	=81-	=81-	=81-	=81-	=81-
1G	-mi-	1d	.	0ryy	.
*	*	*lig	*	*	*
2C/	.	1e	.	.	.
1c\	.	.	.	.	.
=82-	=82-	=82-	=82-	=82-	=82-
.	.	1d	.	0ryy	.
2B\	.	.	.	.	.
*	*	*Xlig	*	*	*
1c	.	1e	.	.	.
=83-	=83-	=83-	=83-	=83-	=83-
2A\	-ni	1e	ni	0ryy	.
2G\	.	.	.	.	.
*	*	*lig	*	*	*
1F	.	1f	.	.	.
=84-	=84-	=84-	=84-	=84-	=84-
2G\	.	1e	.	0ryy	.
1A	.	.	.	.	.
.	.	1c	.	.	.
2F/	.	.	.	.	.
*	*	*Xlig	*	*	*
=85-	=85-	=85-	=85-	=85-	=85-
*	*	*lig	*	*	*
2G/	.	1e	.	0ryy	.
2A\	.	.	.	.	.
2D/	.	1d	.	.	.
1d\	.	.	.	.	.
*	*	*Xlig	*	*	*
=86-	=86-	=86-	=86-	=86-	=86-
.	.	1f	.	0ryy	.
*custos:c	*	*	*	*	*
2A\	.	.	.	.	.
!LO:PB:g=original	!	!	!	!	!
1c	.	1e	.	.	.
=87-	=87-	=87-	=87-	=87-	=87-
1B	.	1d	.	0ryy	.
1A	.	1f	.	.	.
=88-	=88-	=88-	=88-	=88-	=88-
1c	.	1e	.	0ryy	.
2B\	aut	1d	.	.	.
2G/	q(ui)s	.	.	.	.
=89-	=89-	=89-	=89-	=89-	=89-
*	*	*custos:f	*	*	*
1B	.	1d	aut	0ryy	.
!	!	!LO:PB:g=original	!	!	!
*	*	*lig	*	*	*
1A	.	1f	quis	.	.
=90-	=90-	=90-	=90-	=90-	=90-
2G/	.	1d	.	0ryy	.
2F/	.	.	.	.	.
*	*	*Xlig	*	*	*
2E/	.	1e	.	.	.
2C/	.	.	.	.	.
=91-	=91-	=91-	=91-	=91-	=91-
*	*	*lig	*	*	*
1D	.	1f	.	0ryy	.
1C	.	1e	.	.	.
*	*	*Xlig	*	*	*
=92-	=92-	=92-	=92-	=92-	=92-
2G/	.	1d	ſta-	0ryy	.
2F/	.	.	.	.	.
2G/	ſta-	1d	-bit	.	.
2D/	-bit	.	.	.	.
=93-	=93-	=93-	=93-	=93-	=93-
*custos:b	*	*	*	*	*
2G/	in	1d	in	0ryy	.
!LO:LB:g=original	!	!	!	!	!
2B\	lo-	.	.	.	.
2A\	.	1d	lo-	.	.
1G\	.	.	.	.	.
=94-	=94-	=94-	=94-	=94-	=94-
.	.	1d	-co	0ryy	.
2F/	.	.	.	.	.
1G	-co	1d	ſan-	.	.
=95-	=95-	=95-	=95-	=95-	=95-
1D	ſan-	1d	-cto	0ryy	.
1C,	-cto	1e	.	.	.
=96-	=96-	=96-	=96-	=96-	=96-
*	*	*lig	*	*	*
1C	.	1e	e-	0ryy	.
1F	e-	1c	.	.	.
*	*	*Xlig	*	*	*
=97-	=97-	=97-	=97-	=97-	=97-
2E/	.	1e	.	0ryy	.
2C/	.	.	.	.	.
1G	.	1d	.	.	.
=98-	=98-	=98-	=98-	=98-	=98-
*	*	*lig	*	*	*
1A	.	1c	.	0ryy	.
2F/	.	1c	.	.	.
2A\	.	.	.	.	.
=99-	=99-	=99-	=99-	=99-	=99-
2F/	.	1A	.	0ryy	.
2D/	.	.	.	.	.
*	*	*Xlig	*	*	*
*	*	*lig	*	*	*
2E/	.	1c	.	.	.
*custos:D	*	*	*	*	*
1F\	.	.	.	.	.
!LO:LB:g=original	!	!	!	!	!
=100-	=100-	=100-	=100-	=100-	=100-
.	.	1A	.	0ryy	.
2D/	.	.	.	.	.
*	*	*Xlig	*	*	*
*	*	*custos:d	*	*	*
2C/	.	1c	.	.	.
1c\	.	.	.	.	.
!	!	!LO:LB:g=original	!	!	!
=101-	=101-	=101-	=101-	=101-	=101-
.	.	1d	.	0ryy	.
2B\	.	.	.	.	.
2c\	.	1e	.	.	.
2C/	.	.	.	.	.
=102-	=102-	=102-	=102-	=102-	=102-
1G	.	1d	.	0ryy	.
2C/	.	1c	.	.	.
1c\	.	.	.	.	.
=103-	=103-	=103-	=103-	=103-	=103-
.	.	1e	.	0ryy	.
2A\	.	.	.	.	.
2B\	.	1d	.	.	.
2G/	.	.	.	.	.
=104-	=104-	=104-	=104-	=104-	=104-
1A	-ius	1c	.	0ryy	.
*	*	*lig	*	*	*
1D	.	1d	.	.	.
=105-	=105-	=105-	=105-	=105-	=105-
0F	.	1A	.	0ryy	.
*	*	*Xlig	*	*	*
.	.	1A,	-ius	.	.
=106-	=106-	=106-	=106-	=106-	=106-
1C	in-	1c	in-	0ryy	.
1C	-no-	1c	-no-	.	.
=107-	=107-	=107-	=107-	=107-	=107-
*custos:G	*	*	*	*	*
1C	-ce(n)s	1c	-cens	0ryy	.
!LO:LB:g=original	!	!	!	!	!
1G	.	1d	.	.	.
=108-	=108-	=108-	=108-	=108-	=108-
*	*	*lig	*	*	*
2F/	ma-	1d	ma-	0ryy	.
2G/	.	.	.	.	.
1A	.	1c	.	.	.
=109-	=109-	=109-	=109-	=109-	=109-
1G	.	1B	.	0ryy	.
1E	.	1G	.	.	.
*	*	*Xlig	*	*	*
=110-	=110-	=110-	=110-	=110-	=110-
1D	.	1A	.	0ryy	.
1C	.	1c	.	.	.
=111-	=111-	=111-	=111-	=111-	=111-
1G	.	1B	.	0ryy	.
1E	.	1G	.	.	.
=112-	=112-	=112-	=112-	=112-	=112-
1D	.	1A	.	0ryy	.
*	*	*lig	*	*	*
1C	.	1c	.	.	.
=113-	=113-	=113-	=113-	=113-	=113-
*	*	*custos:D	*	*	*
1G	.	1B	.	0ryy	.
*	*	*Xlig	*	*	*
!	!	!LO:LB:g=original	!	!	!
1F	.	1d	.	.	.
=114-	=114-	=114-	=114-	=114-	=114-
1E	.	1e	.	0ryy	.
1A	.	1c	.	.	.
=115-	=115-	=115-	=115-	=115-	=115-
1G	.	1B	.	0ryy	.
*custos:F	*	*	*	*	*
1F	.	1A	.	.	.
!LO:LB:g=original	!	!	!	!	!
=116-	=116-	=116-	=116-	=116-	=116-
*	*	*lig	*	*	*
2F/	.	1A	-ni-	0ryy	.
2D/	-ni-	.	.	.	.
1F	-bus	1A	.	.	.
*	*	*Xlig	*	*	*
=117-	=117-	=117-	=117-	=117-	=117-
*	*	*lig	*	*	*
1C	.	1c	-bus	0ryy	.
1D	.	1A	.	.	.
=118-	=118-	=118-	=118-	=118-	=118-
1E	.	1G	.	0ryy	.
*	*	*Xlig	*	*	*
2F/	.	1A	.	.	.
2D/	.	.	.	.	.
=119-	=119-	=119-	=119-	=119-	=119-
*	*	*lig	*	*	*
!	!	!LO:N:vis=1	!	!	!
!	!	!LO:TX:t=P:problem=signum congruentiae	!	!	!
1A	.	0c	.	0ryy	.
1F	.	.	.	.	.
=120-	=120-	=120-	=120-	=120-	=120-
!	!	!LO:N:vis=1	!	!	!
2F/	.	0c	.	0ryy	.
2C/	.	.	.	.	.
2F/	.	.	.	.	.
1E/	.	.	.	.	.
*	*	*Xlig	*	*	*
=121-	=121-	=121-	=121-	=121-	=121-
!	!	!LO:N:vis=1	!	!	!
!	!	!LO:TX:t=P:problem=signum congruentiae	!	!	!
.	.	0A	.	0ryy	.
2D/	.	.	.	.	.
1F	.	.	.	.	.
=122-	=122-	=122-	=122-	=122-	=122-
*custos:c	*	*	*	*	*
*	*	*lig	*	*	*
2C/	.	1c	.	0ryy	.
!LO:PB:g=original	!	!	!	!	!
1c	.	.	.	.	.
.	.	1G	.	.	.
2B\	.	.	.	.	.
=123-	=123-	=123-	=123-	=123-	=123-
1c	.	1F	.	0ryy	.
*	*	*Xlig	*	*	*
1A	et	1F	et	.	.
=124-	=124-	=124-	=124-	=124-	=124-
1G	.	1G	.	0ryy	.
1F	.	1A	.	.	.
=125-	=125-	=125-	=125-	=125-	=125-
2E/	.	1c	.	0ryy	.
2C/	.	.	.	.	.
1G	.	1B	.	.	.
=126-	=126-	=126-	=126-	=126-	=126-
1F	.	1A	.	0ryy	.
2E/	.	1c	.	.	.
2C/	.	.	.	.	.
=127-	=127-	=127-	=127-	=127-	=127-
1E	.	1G	mu(n)-	0ryy	.
1D	mu(n)-	1A	-do	.	.
=128-	=128-	=128-	=128-	=128-	=128-
*	*	*lig	*	*	*
1C	-do	1c	cor-	0ryy	.
*	*	*custos:c	*	*	*
1D	cor-	1A	.	.	.
*	*	*Xlig	*	*	*
!	!	!LO:LB:g=original	!	!	!
=129-	=129-	=129-	=129-	=129-	=129-
2C/	-de	1c	.	0ryy	.
*custos:B	*	*	*	*	*
2c\	.	.	.	.	.
!LO:LB:g=original	!	!	!	!	!
2B\	.	1d	.	.	.
2G/	.	.	.	.	.
=130-	=130-	=130-	=130-	=130-	=130-
1B	de	1d	-de	0ryy	.
1A	.	1e	.	.	.
=131-	=131-	=131-	=131-	=131-	=131-
*	*	*lig	*	*	*
1c	.	1c	.	0ryy	.
1d	.	1B	.	.	.
*	*	*Xlig	*	*	*
=132-	=132-	=132-	=132-	=132-	=132-
2A\	.	1c	.	0ryy	.
2c\	.	.	.	.	.
2B\	.	1d	.	.	.
2G/	.	.	.	.	.
=133-	=133-	=133-	=133-	=133-	=133-
1B	.	1G	.	0ryy	.
2A\	.	1A	.	.	.
2F/	.	.	.	.	.
=134-	=134-	=134-	=134-	=134-	=134-
1A	.	1c	.	0ryy	.
1A	.	1c	.	.	.
=135-	=135-	=135-	=135-	=135-	=135-
2G/	.	1e	.	0ryy	.
2E/	.	.	.	.	.
*custos:G	*	*	*	*	*
2F/	.	1d	.	.	.
!LO:LB:g=original	!	!	!	!	!
2G/	.	.	.	.	.
=136-	=136-	=136-	=136-	=136-	=136-
*	*	*lig	*	*	*
1C	.	1c	.	0ryy	.
1C	.	1c	.	.	.
*	*	*Xlig	*	*	*
=137-	=137-	=137-	=137-	=137-	=137-
2C/	.	1e	.	0ryy	.
1c	.	.	.	.	.
.	.	1d	.	.	.
2B\	.	.	.	.	.
=138-	=138-	=138-	=138-	=138-	=138-
*	*	*lig	*	*	*
2A\	.	1c	.	0ryy	.
2F/	.	.	.	.	.
1A	.	1c	.	.	.
*	*	*Xlig	*	*	*
=139-	=139-	=139-	=139-	=139-	=139-
*	*	*lig	*	*	*
2G/	.	1B	.	0ryy	.
2E/	.	.	.	.	.
1F	.	1A	.	.	.
*	*	*Xlig	*	*	*
=140-	=140-	=140-	=140-	=140-	=140-
1E	.	1B	.	0ryy	.
*	*	*lig	*	*	*
1AA	.	1c	.	.	.
=141-	=141-	=141-	=141-	=141-	=141-
1C	.	1c	.	0ryy	.
*	*	*Xlig	*	*	*
!	!	!LO:N:vis=00	!	!	!
2D/	.	0.A	.	.	.
2C/	.	.	.	.	.
=142-	=142-	=142-	=142-	=142-	=142-
1D	.	.	.	0ryy	.
*custos:d	*	*	*	*	*
1AA;;	.	.	.	.	.
==	==	==	==	==	==
*-	*-	*-	*-	*-	*-
!!!system-decoration: [(s1,s2,s3)]
!!!RDF**kern: > = above
!!!RDF**kern: < = below
!!!ENC: Filip Voros
!!!END: 2021-12-29
!!!ENC: Kamil Watkowski
!!!END: 2022-01-28
